X: 7
T: The Goodnatured Man
R: hornpipe
M: 4/4
L: 1/8
K: Gmaj
d2 | g2bg d2gd | BcdB G2AB | c2ec A2 cA | FGAF D2 ef|
g2bg d2gd | BcdB G2AB | cedc BAGF | A2 GF G2 :||
Bc | dBdB g3d | e^dec a^gae | f3e dfaf | gabg d2 Bd |
g2bg d2gd | BcdB G2AB | cedc BAGF | A2 GF G2 :||


Tune 312	Setting 28181

